X:2
T:Luring #2
R:schottis
H:efter Luringen och Spel-Bengten
A:Sm{\aa}land
Z:hn-schottis-2
M:C|
K:D
d2dd c2A2|c2cc B2A2|A3A A2A2|A>cec dcBA|
d2dd c2A2|c2cc B2A2|A3A A2A2|A>cec d4:|
|:A2=fe =f2g2|a2aa g2e2|e3e e2e2|(3e=fedc dcBA|
A2=fe =f2g2|a2aa g2e2|e3e e2e2|(3e=fedc d4:|
<end>
<start>
